**kern	**kern
*staff1	*staff1
*head[head1a]	*head[head1a]
*head[head1b]	*head[head1b]
*head[head1aa]	*head[head1aa]
*solo1[solo1a]	*solo1[solo1a]
*solo1[solo1b]	*solo1[solo1b]
*solo1[solo1aa]	*solo1[solo1aa]
=1-	=1-
*clefG2	*clefG2
*k[]	*k[]
*B-:	*B-:
*M4/4	*M4/4
*>solo1a	*>solo1a
{8f/L	1B-:maj
8A/	.
8B-/	.
8G/J	.
4c/	.
8B-/L	.
8G/J	.
=2	=2
8d/L	2C:min
8c/	.
8B-/	.
8G/J	.
8c/	2F:dom
4d/	.
[8A/	.
=3	=3
8A/L]	2B-:maj
[8f/	.
8f/]	.
8d/J	.
8e-/L	.
8G/J	.
12F#/L	.
12G/	.
12B-/J	.
=4	=4
8d/L	2C:min
8B-/J	.
4c/	.
8r	2F:dom
4d/	.
8B-/	.
=5	=5
4.g/	2F:min
8f/	.
8d/L	2B-:dom
8e-/	.
8c/	.
8B-/J	.
=6	=6
8f/L	1E-:maj
8d/	.
8e-/	.
[8c/J	.
8c/L]	.
[8B-/	.
8B-/]	.
8G/J	.
=7	=7
8A/L	2B-:maj
8B-/	.
8c/	.
8B-/J	.
8e-/L	2G:dom
8d/J	.
4f/}	.
=8	=8
2r	2C:min
8r	2F:dom
{4c/	.
8B-/	.
=9	=9
8f/L	1B-:maj
8A/	.
8B-/	.
8G/J	.
4c/	.
8B-/L	.
8A/J	.
=10||	=10||
8d/L	2C:min
8c/	.
8B-/	.
8G/J	.
8c/	2F:dom
4d/	.
[8A/	.
=11	=11
8A/]	1B-:maj
4f/	.
8d/	.
8e-/L	.
8B-/J	.
12F#/L	.
12G/	.
12B-/J	.
=12	=12
8d/L	2C:min
8B-/J	.
4c/	.
8r	2F:dom
4d/	.
8B-/	.
=13	=13
4.g/	2F:min
8f/	.
8d/L	2B-:dom
8e-/	.
8c/	.
8B-/J	.
=14	=14
8f/L	1E-:maj
8d/	.
8e-/	.
[8c/J	.
8c/]	.
4B-/	.
8G/	.
=15	=15
8A/L	1B-:maj
8B-/	.
8B-/	.
8B-/J	.
8r	.
4A/	.
8G/	.
=16	=16
4c/}	1B-:maj
4r	.
4r	.
*>head1b	*>head1b
{8d/L	.
[8e/J	.
=17	=17
8e/]	1D:dom
4d/	.
8g/	.
8f#/L	.
8a/	.
8d/	.
8c/J	.
=18||	=18||
4e/	1D:dom
8r	.
8G#/	.
8A/L	.
8e/	.
8d/	.
8c/J	.
=19	=19
8e/L	1G:dom
8d/	.
8B/	.
8A/J	.
4B-/	.
8r	.
8d/	.
=20	=20
8e-/L	1G:dom
8d/	.
8f/	.
[8A/J	.
4A/]	.
8r	.
8G/	.
=21	=21
8c/L	1C:dom
8g/J	.
12f/L	.
12e/	.
12d/J	.
4.e/	.
8c/	.
=22	=22
12d/L	1C:dom
12g/	.
12e/J	.
4d/}	.
4r	.
8r	.
*>head1aa	*>head1aa
{[8e-/	.
=23	=23
4e-/]	1F:dom
8d/L	.
8c/J	.
8d/L	.
8c/	.
8B-/	.
[8G-/J	.
=24	=24
8G-/]	1F:dom
4B-/	.
8G-/	.
8c/L	.
16d/L	.
16c/J	.
8B-/	.
[8f/J	.
=25	=25
8f/L]	1B-:maj
8A/	.
8B-/	.
8G/J	.
4c/	.
8B-/L	.
8G/J	.
=26||	=26||
8d/L	2C:min
8c/	.
8B-/	.
8G/J	.
8c/	2F:dom
4d/	.
[8A/	.
=27	=27
8A/]	1B-:maj
4f/	.
8d/	.
8e-/L	.
8G/J	.
12F#/L	.
12G/	.
12B-/J	.
=28	=28
8d/L	2C:min
8B-/J	.
4c/	.
8r	2F:dom
4d/	.
8B-/	.
=29	=29
4.g/	2F:min
8f/	.
8d/L	2B-:dom
8e-/	.
8c/	.
8B-/J	.
=30	=30
8f/L	1E-:maj
8d/	.
8e-/	.
[8c/J	.
8c/]	.
4B-/	.
8G/	.
=31	=31
8A/L	2B-:maj
8B-/	.
8c/	.
8B-/J	.
8e-/L	2G:dom
8d/J	.
[4f/	.
=32	=32
2f/]}	2C:min
*>solo1a	*>solo1a
{8d/L	2F:dom
8c/	.
8A/	.
8F/J	.
=33	=33
4B-/	1B-:maj
8r	.
8f/	.
8e/	.
4f/	.
[8b-\	.
=34||	=34||
4b-\]	2C:min
8r	.
8f/	.
12a\L	2F:dom
12b-\	.
12bn\J	.
8cc/L	.
8a/J	.
=35	=35
8b-/L	1B-:maj
8f/	.
8d/	.
8B-/J	.
8a/L	.
8a-/	.
8g/	.
8g-/J	.
=36	=36
8f/L	2C:min
8e/	.
8e-/	.
8B-/J	.
8G/L	2F:dom
8F#/	.
8d/	.
8c/J	.
=37	=37
8B-/L	2F:min
8G/J	.
16A-/LL	.
16c/	.
16e-/	.
16g/JJ	.
8b-/L	2B-:dom:5+
8g-/	.
8d/	.
8B-/J	.
=38	=38
8f/L	1E-:maj
8e-/J}	.
4r	.
2r	.
=39	=39
1r	.
=40	=40
1r	.
=41	=41
8r	1B-:maj
{8a\L	.
8b-\	.
8cc\J	.
8dd-\L	.
8ee-\	.
8cc\	.
8dd-\J	.
=42||	=42||
8a/L	2C:min
8b-/	.
8cc/	.
8a/J	.
8b-/L	2F:dom
8f/	.
8g/	.
8a-/J	.
=43	=43
8g/L	1B-:maj
8f/	.
8e-/	.
8B-/J	.
8c/L	.
8d-/	.
8B-/	.
8G/J	.
=44	=44
8c/L	2C:min
8B-/J	.
12A/L	.
12c/	.
12g-/J	.
8f/L	2F:dom
8e-/	.
8G-/	.
8E/J	.
=45	=45
8F/L	2F:min
8e-/	.
8c/	.
8c#/J	.
8d/L	2B-:dom
8B-/	.
8A-/	.
8cn/J	.
=46	=46
8G/L	1E-:maj
8B-/J	.
12c/L	.
12d/	.
12f/J	.
8e-/L	.
8B-/	.
8G/	.
8G-/J	.
=47	=47
8F/L	1B-:maj
8e-/	.
8c/	.
8c#/J	.
2d/}	.
=48	=48
2r	1B-:maj
4r	.
8r	.
*>solo1b	*>solo1b
{16d/LL	.
16e/JJ	.
=49	=49
16f#/LL	1D:dom
16g/	.
16a/	.
16b/JJ	.
16cc/LL	.
16b/	.
16a/	.
16g/JJ	.
16f#/LL	.
16a/	.
16cc/	.
16ee/JJ	.
4dd\}	.
=50||	=50||
1r	1D:dom
=51	=51
{12ee\L	1G:dom
12ff\	.
12ff#\J	.
8gg\L	.
8ff#\J	.
8ffn\L	.
8ee\	.
8dd\	.
8cc\J	.
=52	=52
8b/L	1G:dom
8B-/J	.
16Bn/LL	.
16d/	.
16f/	.
[16b/JJ	.
4b\]}	.
4r	.
=53	=53
4r	1C:dom
8r	.
{8a/	.
8g/L	.
8f/J	.
16e/LL	.
16g/	.
16b-/	.
16dd/JJ	.
=54	=54
16ff\LL	1C:dom
16dd\	.
16ee-\	.
16een\JJ	.
16cc\LL	.
16cc#\	.
16dd\	.
16ccn\JJ	.
16b-/LL	.
16a/	.
16g/	.
16f/JJ	.
16e/LL	.
16g/	.
16b-/	.
16dd/JJ	.
=55	=55
4a/}	1F:dom
8r	.
{16cc\LL	.
16b\JJ	.
8b-/L	.
8a/J	.
24a-/LL	.
24b-/	.
24a-/JJ	.
8g-/	.
=56	=56
8f/L	1F:dom
8e-/	.
8B-/	.
8G/J	.
4.d/	.
8A/	.
=57	=57
8c/L	1B-:maj
8B-/	.
8A/	.
8B-/J	.
8d/L	.
8f/J}	.
4r	.
=58||	=58||
2r	2C:min
2r	2F:dom
=59	=59
4r	1B-:maj
8r	.
*>solo1aa	*>solo1aa
{[8dd-\	.
8dd-\L]	.
8b-\J	.
12cc\L	.
12dd-\	.
12cc\J	.
=60	=60
8b-/L	2C:min
8a-/	.
8g/	.
8g-/J	.
8f/L	2F:dom
8e-/	.
8d/	.
8c/J	.
=61	=61
8B-/L	2F:min
8A/	.
8A-/	.
8B-/J	.
8b-/L	2B-:dom
8a-/	.
8g/	.
8f/J	.
=62	=62
8e-/L	1E-:maj
8A/	.
8B-/	.
8c/J	.
8d-/L	.
8B-/	.
8G/	.
8A/J	.
=63	=63
8c/L	1B-:maj
8A/J	.
12B-/L	.
12d/	.
12f/J	.
8a\L	.
8b-\	.
8b-\	.
8b-\J	.
=64	=64
8e/L	2C:min
8f/	.
8f/	.
8f/J	.
8d/L	2F:dom
8e/	.
8f/	.
8d/J	.
=65	=65
4c/}	1B-:maj
4r	.
2r	.
==	==
*-	*-
